X: 9553
T: Dave Collins'
R: jig
M: 6/8
K: Gmajor
F|G2G, B,DD|ABA AGF|G2E DB,G,|~B,3 A,B,A,|
~G,3 B,A,B,|G,B,D EDB,|DEG AGE|GBA G2:|
A|~B3 ABA|GBe dBA|G2G, B,A,G,|~B,3 A,B,A,|
~G,3 B,A,B,|G,B,D EDB,|DEG AGE|GBA G2A|
~B3 ABA|GBe dBA|edB GBd|egf e2f|
~g3 fed|edB AFD|EFG AFD|GBA G2||
K:Amaj
E|A2 A, CEA|B2 B BAF|A2 F ECA,|CEC B,2 C|
A,G,A, CA,C|A,CE FEC|EFA BGE|AcB A2:|
B|cAc BGB|Acf ece|f2 e cBc|efg f2 g|
agf gfe|fec BGE|FGA BGE|AcB A2 B|
cAc BGB|Acf ece|A2 F ECA,|CDC B,2 C|
A,G,A, CA,C|A,CE FEC|EFA BGE|AcB A2||

